dist/svgs/devui-icons/op/frame-contract.svg

<svg xmlns="http://www.w3.org/2000/svg" viewBox="0 0 16 16"><path d="M10 6V1h2v3h3v2h-5zM6 1v5H1V4h3V1h2zm4 14v-5h5v2h-3v3h-2zm-4-5v5H4v-3H1v-2h5z"/></svg>

<?xml version="1.0" encoding="UTF-8"?>
<svg width="16px" height="16px" viewBox="0 0 16 16" version="1.1" xmlns="http://www.w3.org/2000/svg" xmlns:xlink="http://www.w3.org/1999/xlink">
    <title>操作/frame_contract</title>
    <desc>Created with Sketch.</desc>
    <g id="操作/frame_contract" stroke="none" stroke-width="1" fill="none" fill-rule="evenodd">
        <path d="M10,6 L10,1 L12,1 L12,4 L15,4 L15,6 L10,6 Z M6,1 L6,6 L1,6 L1,4 L4,4 L4,1 L6,1 Z M10,15 L10,10 L15,10 L15,12 L12,12 L12,15 L10,15 Z M6,10 L6,15 L4,15 L4,12 L1,12 L1,10 L6,10 Z" id="形状" fill="#293040" fill-rule="nonzero"></path>
    </g>
</svg>
